src/images/logos/github.svg

<svg width="20" height="20" viewBox="0 0 20 20" fill="none" xmlns="http://www.w3.org/2000/svg">
<path d="M9.98858 1.86767C14.604 1.86767 18.3219 5.58563 18.3219 10.201C18.3219 13.8869 15.9181 17.0279 12.6168 18.1177C12.3283 18.2138 12.0719 18.0536 12.0719 17.701V15.4253C12.0719 14.3036 11.495 13.8869 11.495 13.8869C13.3219 13.6946 15.3091 12.9895 15.3091 9.78434C15.3091 8.37408 14.4437 7.54075 14.4437 7.54075C14.4437 7.54075 14.8924 6.61127 14.3797 5.32922C14.3797 5.32922 13.6745 5.10486 12.0719 6.1946C10.7257 5.80998 9.25141 5.80998 7.90527 6.1946C6.30271 5.10486 5.59758 5.32922 5.59758 5.32922C5.08476 6.61127 5.53347 7.54075 5.53347 7.54075C5.53347 7.54075 4.66809 8.37408 4.66809 9.78434C4.66809 12.9895 6.65527 13.6946 8.48217 13.8869C8.48217 13.8869 8.03347 14.2074 7.93732 15.0087C7.45656 15.2331 6.23861 15.5856 5.50142 14.3036C5.50142 14.3036 5.08476 13.5023 4.25142 13.4382C4.25142 13.4382 3.41809 13.4382 4.18732 13.951C4.18732 13.951 4.7322 14.2074 5.11681 15.1689C5.11681 15.1689 5.62963 16.8036 7.93732 16.2908V17.701C7.93732 18.0536 7.64887 18.2138 7.3604 18.1177C4.05912 17.0279 1.65527 13.8869 1.65527 10.201C1.65527 5.58563 5.37322 1.86767 9.98858 1.86767Z" fill="#02010A"/>
</svg>

<svg xmlns="http://www.w3.org/2000/svg" fill="none" viewBox="1.66 1.87 16.67 16.28"><path fill="#02010A" d="M9.99 1.87a8.35 8.35 0 0 1 2.63 16.25c-.3.1-.55-.07-.55-.42v-2.27c0-1.13-.58-1.54-.58-1.54 1.83-.2 3.82-.9 3.82-4.1 0-1.42-.87-2.25-.87-2.25s.45-.93-.06-2.21c0 0-.7-.23-2.3.86a7.67 7.67 0 0 0-4.17 0C6.3 5.1 5.6 5.33 5.6 5.33c-.52 1.28-.07 2.21-.07 2.21s-.86.83-.86 2.24c0 3.21 1.99 3.91 3.81 4.1 0 0-.45.33-.54 1.13-.48.22-1.7.58-2.44-.7 0 0-.42-.8-1.25-.87 0 0-.83 0-.06.51 0 0 .54.26.93 1.22 0 0 .51 1.63 2.82 1.12v1.41c0 .35-.3.51-.58.42A8.35 8.35 0 0 1 9.99 1.87Z"/></svg>
